azure-icons/command-1088-Gear.svg

<svg xmlns="http://www.w3.org/2000/svg" viewBox="0 0 15.9 15.9"><path d="M13.9 7.7V8l2 1.3-1.2 3-2.4-.3-.3.3.5 2.4-3 1.2-1.3-2h-.5l-1.3 2-3-1.2.6-2.4-.4-.3-2.4.5-1.2-3 2-1.3v-.4L0 6.4l1.2-3 2.4.6a.8.8 0 01.4-.4l-.6-2.4 3-1.2 1.3 2h.5l1.3-2 3 1.2-.5 2.4.3.4 2.4-.6 1.2 3zm-.9 1V7.2l1.8-1.1-.7-1.7-2.1.5a1.2 1.2 0 00-.5-.5 1.2 1.2 0 00-.5-.5l.5-2.1-1.7-.7-1.1 1.8H7.2L6.1 1.1l-1.7.7.5 2.1a1.2 1.2 0 00-.5.5 1.2 1.2 0 00-.5.5l-2.1-.5-.7 1.7 1.8 1.1v1.5L1.1 9.8l.7 1.7 2.1-.5.5.5.5.5-.5 2.1 1.7.7L7.2 13h1.5l1.1 1.8 1.7-.7L11 12l.5-.5.5-.5 2.1.5.7-1.7zM8 5l1.1.2a2.2 2.2 0 01.9.7 3.1 3.1 0 01.7.9 4.3 4.3 0 01.2 1.2 4.3 4.3 0 01-.2 1.1 2.2 2.2 0 01-.7.9 2.2 2.2 0 01-.9.7l-1.1.2-1.2-.2a3.1 3.1 0 01-.9-.7 2.2 2.2 0 01-.7-.9A4.3 4.3 0 015 8a4.3 4.3 0 01.2-1.2 3.1 3.1 0 01.7-.9 3.1 3.1 0 01.9-.7zm0 5h.8l.6-.5.5-.6A2.5 2.5 0 0010 8a2.8 2.8 0 00-.1-.9l-.5-.6-.6-.4a1.3 1.3 0 00-.8-.2 1.5 1.5 0 00-.9.2l-.6.4-.4.6a1.5 1.5 0 00-.2.9 1.3 1.3 0 00.2.8l.4.6.6.5z"/></svg>

<svg xmlns="http://www.w3.org/2000/svg" viewBox="0 0 15.9 15.9"><title>Asset 50</title><path d="M13.9,7.7h0V8h0l2,1.3-1.2,3L12.3,12l-.3.3.5,2.4-3,1.2-1.3-2H7.7l-1.3,2-3-1.2L4,12.3,3.6,12l-2.4.5L0,9.5,2,8.2H2V7.8H2L0,6.4l1.2-3L3.6,4A.8.8,0,0,1,4,3.6L3.4,1.2,6.4,0,7.7,2h.5L9.5,0l3,1.2L12,3.6l.3.4,2.4-.6,1.2,3Zm-.9,1V7.2l1.8-1.1-.7-1.7L12,4.9a1.2,1.2,0,0,0-.5-.5,1.2,1.2,0,0,0-.5-.5l.5-2.1L9.8,1.1,8.7,2.9H7.2L6.1,1.1l-1.7.7.5,2.1a1.2,1.2,0,0,0-.5.5,1.2,1.2,0,0,0-.5.5L1.8,4.4,1.1,6.1,2.9,7.2V8.7L1.1,9.8l.7,1.7L3.9,11l.5.5.5.5-.5,2.1,1.7.7L7.2,13H8.7l1.1,1.8,1.7-.7L11,12l.5-.5L12,11l2.1.5.7-1.7ZM8,5l1.1.2a2.2,2.2,0,0,1,.9.7,3.1,3.1,0,0,1,.7.9A4.3,4.3,0,0,1,10.9,8a4.3,4.3,0,0,1-.2,1.1,2.2,2.2,0,0,1-.7.9,2.2,2.2,0,0,1-.9.7L8,10.9l-1.2-.2a3.1,3.1,0,0,1-.9-.7,2.2,2.2,0,0,1-.7-.9A4.3,4.3,0,0,1,5,8a4.3,4.3,0,0,1,.2-1.2,3.1,3.1,0,0,1,.7-.9,3.1,3.1,0,0,1,.9-.7Zm0,5h.8l.6-.5.5-.6A2.5,2.5,0,0,0,10,8a2.8,2.8,0,0,0-.1-.9l-.5-.6-.6-.4A1.3,1.3,0,0,0,8,5.9a1.5,1.5,0,0,0-.9.2l-.6.4-.4.6a1.5,1.5,0,0,0-.2.9,1.3,1.3,0,0,0,.2.8l.4.6.6.5Z"/></svg>
